X:1
T:Corner House, The
M:4/4
L:1/8
R:reel
K:Ador
EAAG ABcd|e2dB cAAG|EGGF G2AB|
cABG AGED|EAAG ABcd|e2af gedB|
d2Bd efge|1 dBGB A2AG :|2 dBGB A2Bd|]
eaag a2ga|bgab gedB|d2Bd edBd|
(3efg fa gdBd|eaag a2ga|bgab gedB|
d2Bd efge|1 dBGB A2Bd :|2 dBGB A2AG|]
</abc>
